public/avatar/shoe/183.svg

<svg xmlns:xlink="http://www.w3.org/1999/xlink" height="38.3" width="36.05" xmlns="http://www.w3.org/2000/svg"><use height="18.8" transform="translate(7.9 10.95)" width="24.35" xlink:href="#a"/><defs><g id="a" fill-rule="evenodd"><path d="M4.1-.7q.9 3.55-.4 6.95L2.75 8.3l-.4.8.7 2.25.5.2 2.3-.65q.85-4.6-.15-9.4L5.25-.7H4.1M1.95 8.7l.5-.65.9-2.5.4-3.1.2-3.1-1.5.25Q2.4 2.85 1.1 5.9l-.5.9-.5-.6.35-.75L2.1-.35-.05-.3Q-.6 1.5-1.8 3.25l-.6.85.7.65-5.35-3.2h.25l.2-.2.4-.4.15.05-.35.5-.15.2.35.2q.9.6 2.2 1l.15-.2 1.3-3.25-2.15-.6-.95-.3-.5.2L-7.4.8l-.25.3-.1.1-.8-.35q1.1-1.3 2.15-3.05l.25-.1q3.6-2.25 7.8-1.35l2.2 1.1L6.3-.7l.85 2.35L6.25.2l-.9-.85q2.25 5.6.85 11.4 1-.3 1.3-1.45.7-2.9.15-5.85v-.1l.5 1.95.3 2.7q0 2.5-2.3 3l-.2.55.05-.5-2.85 1-.15.5-.45-1.95-.6-1.9m-1.9 4.6-1.15.5v-.05l-.1.05-1.5.5-.35-.25q-.85-1.5-1.85-2.85-.9-1.3-2.2-2.15-1.35-.9-2.85-1.3L-14.7 6.7q.1-1.65 1.4-2.75 1.1-.9 2.4-1.25.1-.05.15.05l.9.3h-.1l-2.95 1.4-.3.4q-.4 0-.65.75l-.1.55 2.15.3-.05-.5h.1q-.2.65.4.5 2.9.25 5.15 2l-.2-.65.2-.7 1.3-1.25h.05l-.1-.05-.5-.65-.95-.6-.65.25-.2-.1.45-.35-.5-.25-1.35-.5-2.9 1.7-.15-.1.3-.55.1-.1.15-.25 1.7-1.1-.15-.1 2.3.9q2.45.95 4.25 2.85Q-1 9.05.1 11.8q.3.8-.05 1.5m-2.1-10.1L-.3-.3l-2.15-.25-.1.75q-.2 1.4-1.15 2.55l-.3.35 1.3.85.65-.75m-3.6 4.3-.5.7 1.05 1.1.55.5.85-.25.65-.3.9-.5.05-.1q-.8-1.9-2.1-2.4L-5.65 7.5m2.05 2.2-1 .2 1.85 2.55 2.05-.85-.4-.8-.25-.65-.55-1.05-.65.3-1.05.3m1.05 3.7v-.05l.25.3 2.2-1-.6-.55q-.95.5-2.05.55l.05.15-.05.15-.2.15.25.3-.05.1.2-.1" fill="#3a3629" transform="translate(15.9 3.9)"/><path d="M4.1-.7h1.15l.45 2.2q1 4.8.15 9.4l-2.3.65-.5-.2-.7-2.25.4-.8.95-2.05Q5 2.85 4.1-.7m-3 6.6Q2.4 2.85 2.45-.4l1.5-.25-.2 3.1-.4 3.1-.9 2.5-.5.65-.85-1.1V5.9m6.55-2.55v.1Q8.2 6.4 7.5 9.3q-.3 1.15-1.3 1.45 1.4-5.8-.85-11.4l.9.85.9 1.45.45 1.6.05.1M-7.75 1.2l.1-.1.85.45h-.25l-.7-.35m.35-.4 1.25-2.05.5-.2.95.3 2.15.6-1.3 3.25-2.55-1.2.35-.5.25-.55-.4.5-.4.4-.6-.45-.15-.1h-.05m5.6 2.45Q-.6 1.5-.05-.3L2.1-.35.45 5.45-.75 3.4l-1.05-.15m-9.35 1.05-.15.25V4.4l.15-.1m-.25.35-.3.55-.15.75.05.5-2.15-.3.1-.55q.25-.75.65-.75h.05l-.15.5.8-.3.85-.2.25-.2m5-.1.95.6.5.65-1.45-1.25m.2 2.55-.2.7.2.65q-2.25-1.75-5.15-2-.6.15-.4-.5l.2-.65.85.15q.55.6 1.4.5l.5-.1.3.1-.2 1 .3-.95.3.1q0 .4.55.7l1.25.25.1.05m1.5-8.25L-5-.5l.3-.65m1 3.9Q-2.75 1.6-2.55.2l.1-.75L-.3-.3l-1.75 3.5-1.25-.35h-.1l-.3-.1m0 6.8-.85.25-.55-.5-1.05-1.1.5-.7.25.2q0 .45.6.9l.65.45.4.5h.05m-.5-3.3q1.3.5 2.1 2.4l-.05.1-2.05-2.5m.9 3.75.45.45 1.4.7q.55.25.35-.35l.4.8-2.05.85L-4.6 9.9l1-.2.3.3m.6 2.8-.05-.15q1.1-.05 2.05-.55l.6.55-2.2 1-.25-.3v.05h-.15l-.25-.3.2-.15.05-.05v-.1" fill="#3d5f4b" transform="translate(15.9 3.9)"/><path d="m1.95 8.7.6 1.9.45 1.95-.55.9-2.4-.15q.35-.7.05-1.5Q-1 9.05-3.05 6.85-4.85 4.95-7.3 4l-2.3-.9-.2-.1-.05.05-.9-.3q-.05-.1-.15-.05l.15-1 .4-.35q.75-.6 1.8-.5l.8.35.7.35 5.35 3.2L.1 6.2l.5.6.5.8.85 1.1m-8-7.7L-6.2.95l.4-.5-.25.55m-3.65.55-.35.35Q-7.4 3-4.85 4.8q2 1.4 3.3 3.7L.1 11.65l.65 1q.7.25 1.45-.3l.2-.25q-.05-1.25-.8-2.25l-2.95-3.8-3.3-2.6q-2-1.5-4.3-1.8l-.75-.1m8.6 12.25h-.1l.1-.05v.05m-1.6.5-3.6.6-3.4-.1q-2.95.05-5.15-1.85-1.2-1.1-1-2.55.25-2.05 1.15-3.7l4.75 1.05q1.5.4 2.85 1.3 1.3.85 2.2 2.15 1 1.35 1.85 2.85l.35.25m-9-9.1.15.1-.2.65h-.1l.15-.75m4.45-.5.2.1-.75.55-.6.65-.3.95.2-1 1.25-1.25m-5.8 4.95-.05.65.45.3q.55.25.6-.1 0-.35-.3-.6l-.7-.25m-1.65-.35-.25.25q-.2.35 0 .8l.25.05q.5.05.55-.45l-.05-.2-.5-.45m.4 1.9-.1-.2-.2-.1-.2-.2q-.55.3-.2 1h.1l1-.1-.4-.4m.95.2.15.55q.35.5.9.25l.1-.85-.25-.25-.8.1-.1.2m3.05.05-.4-.6-.1.15-.1-.1-.15.1.05.15-.3.35-.1.25 1 .2.3-.2-.05-.05h.1l-.25-.25m-.75 1.55.2.5.45.2.45-.2.2-.5-.2-.5-.45-.2-.45.2-.2.5m-.6.5.15-.05-.65-.85-.7.55 1.2.35m-1.85-.7-.35-.85q-.6.25-.05.75l.4.1m10.95.6-.2.1.05-.1h.15m-.2-.45.05-.15v.1l-.05.05m-2.9.9q-.4-.7-1.1-.6l-.05.1.3.85.85-.35m-2.3-.55q-.2 0-.35.15l-.15.35.15.35.35.15.35-.15.15-.35q0-.2-.15-.35-.15-.15-.35-.15m-1.45-.7q-.3.65.6.7.75 0 .05-.6l-.3-.3-.35.2" fill="#4d351e" transform="translate(15.9 3.9)"/><path d="m-7.65 1.1.25-.3h.05v.15L-7.2.9l.6.45-.2.2-.85-.45m3.8 1.6-.15.2q-1.3-.4-2.2-1l-.35-.2.15-.2 2.55 1.2m2.15 2.05-.7-.65.6-.85 1.05.15 1.2 2.05-.35.75-1.8-1.45M.6 6.8l.5-.9v1.7l-.5-.8M-9.45 3.2l-1.7 1.1-.15.1q-.6-.55-1.3 0l-.55.45h-.05l.3-.4 2.95-1.4.5.15m-1.85 1.35-.1.1-.25.2-.85.2 1.2-.65v.15m-.25.75 2.9-1.7 1.35.5.5.25-.45.35-1.25 1.25-.3-.1.15-.95q.05-.15.25-.2l-.05-.25q-.45-.45-1.4 0-.85.45-.85 1l-.85-.15m4.5-.5.65-.25 1.45 1.25.1.05h-.05L-6.2 7.1l-.1-.05-.5-1.15.1-.1-.6-.5-.8.8-.3-.1.6-.65.75-.55m5-1.6-.65.75L-4 3.1l.3-.35.3.1v.05l.1-.05 1.25.35m-1.7 6.35-.4-.5q0-.55-.35-.95-.4-.4-.9-.4l-.25-.2 1.45-1.25 2.05 2.5-.9.5-.7.3m.9.9q.1-.8-.4-.55l-.05.1-.3-.3 1.05-.3.65-.3.55 1.05.25.65q.2.6-.35.35l-1.4-.7" fill="#4f7b63" transform="translate(15.9 3.9)"/><path d="m-1.35 6.05 2.95 3.8q.75 1 .8 2.25l-.2.25q-.75.55-1.45.3l-.65-1-1.65-3.15q-1.3-2.3-3.3-3.7-2.55-1.8-5.2-2.9l.35-.35q1.5.8 3 1.75l4.1 2.95L1 9.5l-2.35-3.45M-9.6 3.1l.15.1-.5-.15h.1L-9.8 3l.2.1m5.9 6.45h-.05l.7-.3-.65.3m-9.35.1.3.6.7.25q-.05.35-.6.1l-.45-.3.05-.65m-1.65-.35v.25l.1.35.15.15.25-.3.05.2q-.05.5-.55.45l-.25-.05q-.2-.45 0-.8l.25-.25m.1 1.6-.2.1-.1.25.1.25.2.1.2-.1.1-.25v-.05l.4.4-1 .1h-.1q-.35-.7.2-1l.2.2m1.35.3.8-.1.25.25-.1.85q-.55.25-.9-.25l-.15-.55q.45.7 1.05.1.05-.1-.05-.25l-.9-.05m2.45-.2.1-.15.4.6-.5-.45m.65.7.05.05-.3.2-1-.2.1-.25.3-.35.3.5.55.05m-3.35 1.1-.4-.1q-.55-.5.05-.75l.35.85m1.85.7-1.2-.35.7-.55.65.85-.15.05m.6-.5.2-.5.45-.2.45.2.2.5-.2.5-.45.2-.45-.2-.2-.5m3.1.3q.2 0 .35.15.15.15.15.35l-.15.35-.35.15-.35-.15-.15-.35.15-.35q.15-.15.35-.15m2.3.55-.85.35-.3-.85.05-.1q.7-.1 1.1.6M-9.4 12.6q.05.6.6.25l.05-.15q.7.6-.05.6-.9-.05-.6-.7" fill="#741" transform="translate(15.9 3.9)"/><path d="M-3.4 2.85h.1l-.1.05v-.05M-7.2.9l-.15.05V.8l.15.1m-1.6 4.95-.5.1q-.85.1-1.4-.5 0-.55.85-1 .95-.45 1.4 0l.05.25q-.2.05-.25.2l-.15.95m.7.25.8-.8.6.5-.1.1.5 1.15-1.25-.25q-.55-.3-.55-.7m3.95 2.95-.65-.45q-.6-.45-.6-.9.5 0 .9.4.35.4.35.95m1.3 1.4L-3.3 10l.05-.1q.5-.25.4.55m-9.65-5.4-.8.3.15-.5.55-.45q.7-.55 1.3 0l-1.2.65" fill="#a2c4b0" transform="translate(15.9 3.9)"/><path d="M-1.35 6.05 1 9.5l-3.6-3.25-4.1-2.95q-1.5-.95-3-1.75l.75.1q2.3.3 4.3 1.8l3.3 2.6m-10.7 4.45-.7-.25-.3-.6.7.25q.3.25.3.6m-2.15-.75-.25.3-.15-.15-.1-.35V9.3l.5.45m-.4 1.15.2.1.1.2v.05l-.1.25-.2.1-.2-.1-.1-.25.1-.25.2-.1m1.25.5.1-.2.9.05q.1.15.05.25-.6.6-1.05-.1m2.55-.4.5.45.25.25h-.1l-.55-.05-.3-.5-.05-.15.15-.1.1.1m2.05 1.7-.05.15q-.55.35-.6-.25l.35-.2.3.3" fill="#e49443" transform="translate(15.9 3.9)"/></g></defs></svg>

<?xml version="1.0" encoding="UTF-8" standalone="no"?>
<svg xmlns:xlink="http://www.w3.org/1999/xlink" height="38.3px" width="36.05px" xmlns="http://www.w3.org/2000/svg">
  <g transform="matrix(1.0, 0.0, 0.0, 1.0, 23.8, 14.85)">
    <use height="18.8" transform="matrix(1.0, 0.0, 0.0, 1.0, -15.9, -3.9)" width="24.35" xlink:href="#shape0"/>
  </g>
  <defs>
    <g id="shape0" transform="matrix(1.0, 0.0, 0.0, 1.0, 15.9, 3.9)">
      <path d="M4.1 -0.7 Q5.0 2.85 3.7 6.25 L2.75 8.3 2.35 9.1 3.05 11.35 3.55 11.55 5.85 10.9 Q6.7 6.3 5.7 1.5 L5.25 -0.7 4.1 -0.7 M1.95 8.7 L2.45 8.05 3.35 5.55 3.75 2.45 3.95 -0.65 2.45 -0.4 Q2.4 2.85 1.1 5.9 L0.6 6.8 0.1 6.2 0.45 5.45 2.1 -0.35 -0.05 -0.3 Q-0.6 1.5 -1.8 3.25 L-2.4 4.1 -1.7 4.75 -7.05 1.55 -6.8 1.55 -6.6 1.35 -6.2 0.95 -6.05 1.0 -6.4 1.5 -6.55 1.7 -6.2 1.9 Q-5.3 2.5 -4.0 2.9 L-3.85 2.7 -2.55 -0.55 -4.7 -1.15 -5.65 -1.45 -6.15 -1.25 -7.4 0.8 -7.65 1.1 -7.75 1.2 -8.55 0.85 Q-7.45 -0.45 -6.4 -2.2 L-6.15 -2.3 Q-2.55 -4.55 1.65 -3.65 L3.85 -2.55 6.3 -0.7 7.15 1.65 6.25 0.2 5.35 -0.65 Q7.6 4.95 6.2 10.75 7.2 10.45 7.5 9.3 8.2 6.4 7.65 3.45 L7.65 3.35 8.15 5.3 8.45 8.0 Q8.45 10.5 6.15 11.0 L5.95 11.55 6.0 11.05 3.15 12.05 3.0 12.55 2.55 10.6 1.95 8.7 M0.05 13.3 L-1.1 13.8 -1.1 13.75 -1.2 13.8 -2.7 14.3 -3.05 14.05 Q-3.9 12.55 -4.9 11.2 -5.8 9.9 -7.1 9.05 -8.45 8.15 -9.95 7.75 L-14.7 6.7 Q-14.6 5.05 -13.3 3.95 -12.2 3.05 -10.9 2.7 -10.8 2.65 -10.75 2.75 L-9.85 3.05 -9.95 3.05 -12.9 4.45 -13.2 4.85 Q-13.6 4.85 -13.85 5.6 L-13.95 6.15 -11.8 6.45 -11.85 5.95 -11.75 5.95 Q-11.95 6.6 -11.35 6.45 -8.45 6.7 -6.2 8.45 L-6.4 7.8 -6.2 7.1 -4.9 5.85 -4.85 5.85 -4.95 5.8 -5.45 5.15 -6.4 4.55 -7.05 4.8 -7.25 4.7 -6.8 4.35 -7.3 4.1 -8.65 3.6 -11.55 5.3 -11.7 5.2 -11.4 4.65 -11.3 4.55 -11.15 4.3 -9.45 3.2 -9.6 3.1 -7.3 4.0 Q-4.85 4.95 -3.05 6.85 -1.0 9.05 0.1 11.8 0.4 12.6 0.05 13.3 M-2.05 3.2 L-0.3 -0.3 -2.45 -0.55 -2.55 0.2 Q-2.75 1.6 -3.7 2.75 L-4.0 3.1 -2.7 3.95 -2.05 3.2 M-5.65 7.5 L-6.15 8.2 -5.1 9.3 -4.55 9.8 -3.7 9.55 -3.05 9.25 -2.15 8.75 -2.1 8.65 Q-2.9 6.75 -4.2 6.25 L-5.65 7.5 M-3.6 9.7 L-4.6 9.9 -2.75 12.45 -0.7 11.6 -1.1 10.8 -1.35 10.15 -1.9 9.1 -2.55 9.4 -3.6 9.7 M-2.55 13.4 L-2.55 13.35 -2.3 13.65 -0.1 12.65 -0.7 12.1 Q-1.65 12.6 -2.75 12.65 L-2.7 12.8 -2.75 12.95 -2.95 13.1 -2.7 13.4 -2.75 13.5 -2.55 13.4" fill="#3a3629" fill-rule="evenodd" stroke="none"/>
      <path d="M4.1 -0.7 L5.25 -0.7 5.7 1.5 Q6.7 6.3 5.85 10.9 L3.55 11.55 3.05 11.35 2.35 9.1 2.75 8.3 3.7 6.25 Q5.0 2.85 4.1 -0.7 M1.1 5.9 Q2.4 2.85 2.45 -0.4 L3.95 -0.65 3.75 2.45 3.35 5.55 2.45 8.05 1.95 8.7 1.1 7.6 1.1 5.9 M7.65 3.35 L7.65 3.45 Q8.2 6.4 7.5 9.3 7.2 10.45 6.2 10.75 7.6 4.95 5.35 -0.65 L6.25 0.2 7.15 1.65 7.6 3.25 7.65 3.35 M-7.75 1.2 L-7.65 1.1 -6.8 1.55 -7.05 1.55 -7.75 1.2 M-7.4 0.8 L-6.15 -1.25 -5.65 -1.45 -4.7 -1.15 -2.55 -0.55 -3.85 2.7 -6.4 1.5 -6.05 1.0 -5.8 0.45 -6.2 0.95 -6.6 1.35 -7.2 0.9 -7.35 0.8 -7.4 0.8 M-1.8 3.25 Q-0.6 1.5 -0.05 -0.3 L2.1 -0.35 0.45 5.45 -0.75 3.4 -1.8 3.25 M-11.15 4.3 L-11.3 4.55 -11.3 4.4 -11.15 4.3 M-11.4 4.65 L-11.7 5.2 -11.85 5.95 -11.8 6.45 -13.95 6.15 -13.85 5.6 Q-13.6 4.85 -13.2 4.85 L-13.15 4.85 -13.3 5.35 -12.5 5.05 -11.65 4.85 -11.4 4.65 M-6.4 4.55 L-5.45 5.15 -4.95 5.8 -6.4 4.55 M-6.2 7.1 L-6.4 7.8 -6.2 8.45 Q-8.45 6.7 -11.35 6.45 -11.95 6.6 -11.75 5.95 L-11.55 5.3 -10.7 5.45 Q-10.15 6.05 -9.3 5.95 L-8.8 5.85 -8.5 5.95 -8.7 6.95 -8.4 6.0 -8.1 6.1 Q-8.1 6.5 -7.55 6.8 L-6.3 7.05 -6.2 7.1 M-4.7 -1.15 L-5.0 -0.5 -4.7 -1.15 M-3.7 2.75 Q-2.75 1.6 -2.55 0.2 L-2.45 -0.55 -0.3 -0.3 -2.05 3.2 -3.3 2.85 -3.4 2.85 -3.7 2.75 M-3.7 9.55 L-4.55 9.8 -5.1 9.3 -6.15 8.2 -5.65 7.5 -5.4 7.7 Q-5.4 8.15 -4.8 8.6 L-4.15 9.05 -3.75 9.55 -3.7 9.55 M-4.2 6.25 Q-2.9 6.75 -2.1 8.65 L-2.15 8.75 -4.2 6.25 M-3.3 10.0 L-2.85 10.45 -1.45 11.15 Q-0.9 11.4 -1.1 10.8 L-0.7 11.6 -2.75 12.45 -4.6 9.9 -3.6 9.7 -3.3 10.0 M-2.7 12.8 L-2.75 12.65 Q-1.65 12.6 -0.7 12.1 L-0.1 12.65 -2.3 13.65 -2.55 13.35 -2.55 13.4 -2.7 13.4 -2.95 13.1 -2.75 12.95 -2.7 12.9 -2.7 12.8" fill="#3d5f4b" fill-rule="evenodd" stroke="none"/>
      <path d="M1.95 8.7 L2.55 10.6 3.0 12.55 2.45 13.45 0.05 13.3 Q0.4 12.6 0.1 11.8 -1.0 9.05 -3.05 6.85 -4.85 4.95 -7.3 4.0 L-9.6 3.1 -9.8 3.0 -9.85 3.05 -10.75 2.75 Q-10.8 2.65 -10.9 2.7 L-10.75 1.7 -10.35 1.35 Q-9.6 0.75 -8.55 0.85 L-7.75 1.2 -7.05 1.55 -1.7 4.75 0.1 6.2 0.6 6.8 1.1 7.6 1.95 8.7 M-6.05 1.0 L-6.2 0.95 -5.8 0.45 -6.05 1.0 M-9.7 1.55 L-10.05 1.9 Q-7.4 3.0 -4.85 4.8 -2.85 6.2 -1.55 8.5 L0.1 11.65 0.75 12.65 Q1.45 12.9 2.2 12.35 L2.4 12.1 Q2.35 10.85 1.6 9.85 L-1.35 6.05 -4.65 3.45 Q-6.65 1.95 -8.95 1.65 L-9.7 1.55 M-1.1 13.8 L-1.2 13.8 -1.1 13.75 -1.1 13.8 M-2.7 14.3 L-6.3 14.9 -9.7 14.8 Q-12.65 14.85 -14.85 12.95 -16.05 11.85 -15.85 10.4 -15.6 8.35 -14.7 6.7 L-9.95 7.75 Q-8.45 8.15 -7.1 9.05 -5.8 9.9 -4.9 11.2 -3.9 12.55 -3.05 14.05 L-2.7 14.3 M-11.7 5.2 L-11.55 5.3 -11.75 5.95 -11.85 5.95 -11.7 5.2 M-7.25 4.7 L-7.05 4.8 -7.8 5.35 -8.4 6.0 -8.7 6.95 -8.5 5.95 -7.25 4.7 M-13.05 9.65 L-13.1 10.3 -12.65 10.6 Q-12.1 10.85 -12.05 10.5 -12.05 10.15 -12.35 9.9 L-13.05 9.65 M-14.7 9.3 L-14.95 9.55 Q-15.15 9.9 -14.95 10.35 L-14.7 10.4 Q-14.2 10.45 -14.15 9.95 L-14.2 9.75 -14.7 9.3 M-14.3 11.2 L-14.4 11.0 -14.6 10.9 -14.8 10.7 Q-15.35 11.0 -15.0 11.7 L-14.9 11.7 -13.9 11.6 -14.3 11.2 M-13.35 11.4 L-13.2 11.95 Q-12.85 12.45 -12.3 12.2 L-12.2 11.35 -12.45 11.1 -13.25 11.2 -13.35 11.4 M-10.3 11.45 L-10.7 10.85 -10.8 11.0 -10.9 10.9 -11.05 11.0 -11.0 11.15 -11.3 11.5 -11.4 11.75 -10.4 11.95 -10.1 11.75 -10.15 11.7 -10.05 11.7 -10.3 11.45 M-11.05 13.0 L-10.85 13.5 -10.4 13.7 -9.95 13.5 -9.75 13.0 -9.95 12.5 -10.4 12.3 -10.85 12.5 -11.05 13.0 M-11.65 13.5 L-11.5 13.45 -12.15 12.6 -12.85 13.15 -11.65 13.5 M-13.5 12.8 L-13.85 11.95 Q-14.45 12.2 -13.9 12.7 L-13.5 12.8 M-2.55 13.4 L-2.75 13.5 -2.7 13.4 -2.55 13.4 M-2.75 12.95 L-2.7 12.8 -2.7 12.9 -2.75 12.95 M-5.65 13.85 Q-6.05 13.15 -6.75 13.25 L-6.8 13.35 -6.5 14.2 -5.65 13.85 M-7.95 13.3 Q-8.15 13.3 -8.3 13.45 L-8.45 13.8 -8.3 14.15 -7.95 14.3 -7.6 14.15 -7.45 13.8 Q-7.45 13.6 -7.6 13.45 -7.75 13.3 -7.95 13.3 M-9.4 12.6 Q-9.7 13.25 -8.8 13.3 -8.05 13.3 -8.75 12.7 L-9.05 12.4 -9.4 12.6" fill="#4d351e" fill-rule="evenodd" stroke="none"/>
      <path d="M-7.65 1.1 L-7.4 0.8 -7.35 0.8 -7.35 0.95 -7.2 0.9 -6.6 1.35 -6.8 1.55 -7.65 1.1 M-3.85 2.7 L-4.0 2.9 Q-5.3 2.5 -6.2 1.9 L-6.55 1.7 -6.4 1.5 -3.85 2.7 M-1.7 4.75 L-2.4 4.1 -1.8 3.25 -0.75 3.4 0.45 5.45 0.1 6.2 -1.7 4.75 M0.6 6.8 L1.1 5.9 1.1 7.6 0.6 6.8 M-9.45 3.2 L-11.15 4.3 -11.3 4.4 Q-11.9 3.85 -12.6 4.4 L-13.15 4.85 -13.2 4.85 -12.9 4.45 -9.95 3.05 -9.45 3.2 M-11.3 4.55 L-11.4 4.65 -11.65 4.85 -12.5 5.05 -11.3 4.4 -11.3 4.55 M-11.55 5.3 L-8.65 3.6 -7.3 4.1 -6.8 4.35 -7.25 4.7 -8.5 5.95 -8.8 5.85 -8.65 4.9 Q-8.6 4.75 -8.4 4.7 L-8.45 4.45 Q-8.9 4.0 -9.85 4.45 -10.7 4.9 -10.7 5.45 L-11.55 5.3 M-7.05 4.8 L-6.4 4.55 -4.95 5.8 -4.85 5.85 -4.9 5.85 -6.2 7.1 -6.3 7.05 -6.8 5.9 -6.7 5.8 -7.3 5.3 -8.1 6.1 -8.4 6.0 -7.8 5.35 -7.05 4.8 M-2.05 3.2 L-2.7 3.95 -4.0 3.1 -3.7 2.75 -3.4 2.85 -3.4 2.9 -3.3 2.85 -2.05 3.2 M-3.75 9.55 L-4.15 9.05 Q-4.15 8.5 -4.5 8.1 -4.9 7.7 -5.4 7.7 L-5.65 7.5 -4.2 6.25 -2.15 8.75 -3.05 9.25 -3.75 9.55 M-2.85 10.45 Q-2.75 9.65 -3.25 9.9 L-3.3 10.0 -3.6 9.7 -2.55 9.4 -1.9 9.1 -1.35 10.15 -1.1 10.8 Q-0.9 11.4 -1.45 11.15 L-2.85 10.45" fill="#4f7b63" fill-rule="evenodd" stroke="none"/>
      <path d="M-1.35 6.05 L1.6 9.85 Q2.35 10.85 2.4 12.1 L2.2 12.35 Q1.45 12.9 0.75 12.65 L0.1 11.65 -1.55 8.5 Q-2.85 6.2 -4.85 4.8 -7.4 3.0 -10.05 1.9 L-9.7 1.55 Q-8.2 2.35 -6.7 3.3 L-2.6 6.25 1.0 9.5 -1.35 6.05 M-9.6 3.1 L-9.45 3.2 -9.95 3.05 -9.85 3.05 -9.8 3.0 -9.6 3.1 M-3.7 9.55 L-3.75 9.55 -3.05 9.25 -3.7 9.55 M-13.05 9.65 L-12.75 10.25 -12.05 10.5 Q-12.1 10.85 -12.65 10.6 L-13.1 10.3 -13.05 9.65 M-14.7 9.3 L-14.7 9.55 -14.6 9.9 -14.45 10.05 -14.2 9.75 -14.15 9.95 Q-14.2 10.45 -14.7 10.4 L-14.95 10.35 Q-15.15 9.9 -14.95 9.55 L-14.7 9.3 M-14.6 10.9 L-14.8 11.0 -14.9 11.25 -14.8 11.5 -14.6 11.6 -14.4 11.5 -14.3 11.25 -14.3 11.2 -13.9 11.6 -14.9 11.7 -15.0 11.7 Q-15.35 11.0 -14.8 10.7 L-14.6 10.9 M-13.25 11.2 L-12.45 11.1 -12.2 11.35 -12.3 12.2 Q-12.85 12.45 -13.2 11.95 L-13.35 11.4 Q-12.9 12.1 -12.3 11.5 -12.25 11.4 -12.35 11.25 L-13.25 11.2 M-10.8 11.0 L-10.7 10.85 -10.3 11.45 -10.8 11.0 M-10.15 11.7 L-10.1 11.75 -10.4 11.95 -11.4 11.75 -11.3 11.5 -11.0 11.15 -10.7 11.65 -10.15 11.7 M-13.5 12.8 L-13.9 12.7 Q-14.45 12.2 -13.85 11.95 L-13.5 12.8 M-11.65 13.5 L-12.85 13.15 -12.15 12.6 -11.5 13.45 -11.65 13.5 M-11.05 13.0 L-10.85 12.5 -10.4 12.3 -9.95 12.5 -9.75 13.0 -9.95 13.5 -10.4 13.7 -10.85 13.5 -11.05 13.0 M-7.95 13.3 Q-7.75 13.3 -7.6 13.45 -7.45 13.6 -7.45 13.8 L-7.6 14.15 -7.95 14.3 -8.3 14.15 -8.45 13.8 -8.3 13.45 Q-8.15 13.3 -7.95 13.3 M-5.65 13.85 L-6.5 14.2 -6.8 13.35 -6.75 13.25 Q-6.05 13.15 -5.65 13.85 M-9.4 12.6 Q-9.35 13.2 -8.8 12.85 L-8.75 12.7 Q-8.05 13.3 -8.8 13.3 -9.7 13.25 -9.4 12.6" fill="#774411" fill-rule="evenodd" stroke="none"/>
      <path d="M-3.4 2.85 L-3.3 2.85 -3.4 2.9 -3.4 2.85 M-7.2 0.9 L-7.35 0.95 -7.35 0.8 -7.2 0.9 M-8.8 5.85 L-9.3 5.95 Q-10.15 6.05 -10.7 5.45 -10.7 4.9 -9.85 4.45 -8.9 4.0 -8.45 4.45 L-8.4 4.7 Q-8.6 4.75 -8.65 4.9 L-8.8 5.85 M-8.1 6.1 L-7.3 5.3 -6.7 5.8 -6.8 5.9 -6.3 7.05 -7.55 6.8 Q-8.1 6.5 -8.1 6.1 M-4.15 9.05 L-4.8 8.6 Q-5.4 8.15 -5.4 7.7 -4.9 7.7 -4.5 8.1 -4.15 8.5 -4.15 9.05 M-2.85 10.45 L-3.3 10.0 -3.25 9.9 Q-2.75 9.65 -2.85 10.45 M-12.5 5.05 L-13.3 5.35 -13.15 4.85 -12.6 4.4 Q-11.9 3.85 -11.3 4.4 L-12.5 5.05" fill="#a2c4b0" fill-rule="evenodd" stroke="none"/>
      <path d="M-1.35 6.05 L1.0 9.5 -2.6 6.25 -6.7 3.3 Q-8.2 2.35 -9.7 1.55 L-8.95 1.65 Q-6.65 1.95 -4.65 3.45 L-1.35 6.05 M-12.05 10.5 L-12.75 10.25 -13.05 9.65 -12.35 9.9 Q-12.05 10.15 -12.05 10.5 M-14.2 9.75 L-14.45 10.05 -14.6 9.9 -14.7 9.55 -14.7 9.3 -14.2 9.75 M-14.6 10.9 L-14.4 11.0 -14.3 11.2 -14.3 11.25 -14.4 11.5 -14.6 11.6 -14.8 11.5 -14.9 11.25 -14.8 11.0 -14.6 10.9 M-13.35 11.4 L-13.25 11.2 -12.35 11.25 Q-12.25 11.4 -12.3 11.5 -12.9 12.1 -13.35 11.4 M-10.8 11.0 L-10.3 11.45 -10.05 11.7 -10.15 11.7 -10.7 11.65 -11.0 11.15 -11.05 11.0 -10.9 10.9 -10.8 11.0 M-8.75 12.7 L-8.8 12.85 Q-9.35 13.2 -9.4 12.6 L-9.05 12.4 -8.75 12.7" fill="#e49443" fill-rule="evenodd" stroke="none"/>
    </g>
  </defs>
</svg>
